X: 15402
T: Gleann An Phréacháin
R: reel
M: 4/4
K: Dminor
D2 AD cDAD|(3BAG AB AGEF|D2 AD cDAD|(3BAG AB A4:|
|:BAAG E2 (3EFG|AGGE DEFG|BAAG EFG^G|1 ABAG A2A A:|2 ABAG A2 (3ABc||
|:d3 d cd B2|BAAB GAB=B|c3 c cBBA|1 ABAG ABc^c:|2 ABAG A3 A||
|:BAAG E2 (3EFG|AGGE DEFG|BAAG EFG^G|1 ABAG A2A A:|2 ABAG A3 _A||
|:G3 G GFEF|^GAAA AFDF|G2 AG GA (3BAG|ABAG AFDF
G2 GA GFEF|^GAAB AFDF|G2 AG GA (3BAG|AFEF D4:|

